X: 9894
T: Derrygortnea
R: reel
M: 4/4
K: Adorian
|:EAAE GABG|EAAE GABd|eaaa gedB|cA Bc AGED|
EAAE GABG|EAAE GABd|eaaa gedB|1 c2 Bc AGED:|2 c2 Bc ABcd||
|:eaaa gedB|cABc AGED|EAAE GABd|eaaf gefd|
eaaf gfdB|c2 Bc AGED|EAAE GABd|1 egdB ABcd:|2 egdB A3G||

